svgs/:acrobat:.svg

<?xml version="1.0" encoding="UTF-8" standalone="no"?>
<!-- Uploaded to: SVG Repo, www.svgrepo.com, Generator: SVG Repo Mixer Tools -->

<svg
   fill="#000000"
   width="24"
   height="24"
   viewBox="0 0 0.72 0.72"
   role="img"
   version="1.1"
   id="svg1"
   sodipodi:docname="adobe-acrobat-reader-svgrepo-com.svg"
   inkscape:version="1.4.3 (0d15f75, 2025-12-25)"
   xmlns:inkscape="http://www.inkscape.org/namespaces/inkscape"
   xmlns:sodipodi="http://sodipodi.sourceforge.net/DTD/sodipodi-0.dtd"
   xmlns="http://www.w3.org/2000/svg"
   xmlns:svg="http://www.w3.org/2000/svg"
   xmlns:rdf="http://www.w3.org/1999/02/22-rdf-syntax-ns#"
   xmlns:cc="http://creativecommons.org/ns#"
   xmlns:dc="http://purl.org/dc/elements/1.1/">
  <defs
     id="defs1" />
  <sodipodi:namedview
     id="namedview1"
     pagecolor="#505050"
     bordercolor="#ffffff"
     borderopacity="1"
     inkscape:showpageshadow="0"
     inkscape:pageopacity="0"
     inkscape:pagecheckerboard="1"
     inkscape:deskcolor="#505050"
     inkscape:zoom="23.911426"
     inkscape:cx="11.58442"
     inkscape:cy="12.02354"
     inkscape:window-width="1710"
     inkscape:window-height="1044"
     inkscape:window-x="0"
     inkscape:window-y="40"
     inkscape:window-maximized="0"
     inkscape:current-layer="svg1" />
  <title
     id="title1">Adobe Acrobat Reader icon</title>
  <path
     d="m 0.70865948,0.45382076 c -0.021117,-0.0221582 -0.0644224,-0.0347989 -0.12563273,-0.0347989 -0.0327168,0 -0.0706981,0.003153 -0.11186191,0.0105293 a 0.5782854,0.5782854 0 0 1 -0.0686162,-0.079145 c -0.0158231,-0.0211172 -0.0295642,-0.0443165 -0.0422345,-0.0665045 0.0242997,-0.0738806 0.0358994,-0.13404991 0.0358994,-0.1773254 0,-0.04853997 -0.0179348,-0.09922131 -0.0696572,-0.09922131 -0.0158231,0 -0.0316759,0.00951768 -0.0401227,0.02322896 -0.0231992,0.04116372 -0.0126406,0.13086745 0.0274524,0.21953015 a 1.7927948,1.7927948 0 0 1 -0.0506517,0.13404987 c -0.0168937,0.0401227 -0.0358992,0.0812865 -0.0570165,0.11926781 -0.11608537,0.046458 -0.19103673,0.10029212 -0.19948363,0.1424671 -0.00315335,0.0158527 0.0021123,0.0306349 0.01374108,0.0422347 0.0042235,0.00318 0.01900553,0.0158527 0.04431648,0.0158527 0.07703334,0 0.15831988,-0.12456206 0.19948363,-0.19948363 0.0316759,-0.0105593 0.0633517,-0.021117 0.0949978,-0.0295644 a 1.0398906,1.0398906 0 0 1 0.10133296,-0.022158 c 0.0812568,0.0728099 0.15302568,0.0844392 0.188925,0.0844392 0.0443167,0 0.0601693,-0.0179647 0.0654337,-0.0327168 0.009518,-0.0190351 0.003154,-0.0401226 -0.006335,-0.0506814 z M 0.666425,0.48445557 c -0.00318,0.0158233 -0.0190351,0.0263814 -0.0411638,0.0263814 -0.006335,0 -0.0115996,-0.001069 -0.0179645,-0.002112 -0.040093,-0.009518 -0.0781041,-0.0295639 -0.11608537,-0.06124 a 0.52694968,0.52694968 0 0 1 0.0886329,-0.007376 c 0.022188,0 0.0411935,0.001041 0.053834,0.004223 0.0147821,0.003153 0.038011,0.0126704 0.0327168,0.040093 z M 0.44264169,0.43484497 a 1.1305162,1.1305162 0 0 0 -0.087592,0.0200465 1.1801864,1.1801864 0 0 0 -0.0749514,0.0221582 1.1911911,1.1911911 0 0 0 0.0358994,-0.0759923 c 0.0126704,-0.0295641 0.0231992,-0.0601693 0.0337876,-0.0886627 0.0105293,0.0179348 0.0221582,0.0358993 0.0337579,0.0517223 a 1.4909074,1.4909074 0 0 0 0.0590985,0.070728 z M 0.30439807,0.04218315 A 0.02284232,0.02284232 0 0 1 0.3244445,0.02954259 c 0.0221582,0 0.0263817,0.0253109 0.0263817,0.04538717 0,0.03375785 -0.0105582,0.08548026 -0.0284935,0.14457879 C 0.2916978,0.13718095 0.2896159,0.06859459 0.30439807,0.04218315 Z M 0.18828295,0.53403654 c -0.0538341,0.0886627 -0.1055565,0.14353783 -0.13720263,0.14353783 a 0.02593556,0.02593556 0 0 1 -0.01582306,-0.005266 c -0.0063351,-0.006335 -0.0095177,-0.0137112 -0.0074059,-0.0221581 0.0063351,-0.0316759 0.06754547,-0.0759923 0.1604316,-0.11611511 z"
     id="path1"
     style="stroke-width:0.0297426" />
  <metadata
     id="metadata1">
    <rdf:RDF>
      <cc:Work
         rdf:about="">
        <dc:title>Adobe Acrobat Reader icon</dc:title>
      </cc:Work>
    </rdf:RDF>
  </metadata>
</svg>

<svg xmlns="http://www.w3.org/2000/svg" width="24" height="24" viewBox="0 0 0.72 0.72"><title>Adobe Acrobat Reader icon</title><path d="M.709.454Q.676.42.583.419a1 1 0 0 0-.112.01A1 1 0 0 1 .403.35 1 1 0 0 1 .36.284.6.6 0 0 0 .396.107c0-.049-.018-.1-.07-.1a.05.05 0 0 0-.04.024C.263.07.274.16.314.25a2 2 0 0 1-.05.133q-.027.06-.058.12c-.116.046-.19.1-.2.142A.05.05 0 0 0 .02.688c.005.003.02.016.045.016.077 0 .158-.125.2-.2l.094-.03A1 1 0 0 1 .461.454.3.3 0 0 0 .65.537C.694.537.71.52.715.505A.05.05 0 0 0 .709.454m-.043.03C.663.5.647.511.626.511L.606.509A.3.3 0 0 1 .491.447 1 1 0 0 1 .58.44q.034 0 .054.004c.014.003.038.013.032.04M.443.434l-.088.02L.28.478.316.401Q.335.356.35.312l.034.052zM.304.043A.02.02 0 0 1 .324.03c.023 0 .027.025.027.045A.6.6 0 0 1 .322.22C.292.137.29.069.304.042M.188.534C.134.623.083.678.051.678A.03.03 0 0 1 .035.672Q.025.663.028.65C.034.618.095.574.188.534" style="stroke-width:.0297426"/></svg>
